X:1
T:Westmoreland, CMD
T:Westmoreland, CMD
T:Moravian Tune
T:Public Domain Courtesy of the Cyber Hymnal™
C:Moravian Tune
Z:Public Domain
Z:Courtesy of the Cyber Hymnal™
%%score ( 1 2 ) ( 3 4 )
L:1/8
Q:1/4=108
M:2/4
K:D
V:1 treble 
V:2 treble 
V:3 bass 
V:4 bass 
V:1
|: [Fd]2 | [Ad]2 [FA]2 | [GB]2 [Gc]2 | [Fd]2 B2 | [CA]2 [EG]2 | [DF]2 ([DA][EG]) | [DF]2 [CE]2 | %7
 D4- | D2 :| [Fd]2 | [Ec]2 [^Ge]2 | [Ae]2 A2 | [Ad]2 [Ae]2 | [Af]2 [Fd]2 | [Ec]2 ([Ee][Fd]) | %15
 [Ec]2 B2 | [CA]4- | [CA]2 [Fd]2 | [Ad]2 [FA]2 | [GB]2 [Gc]2 | [Fd]2 B2 | [CA]2 [EG]2 | %22
 [DF]2 ([DA][EG]) | [DF]2 [CE]2 | D4- | D2 |] %26
V:2
|: x2 | x4 | x4 | x2 (ED) | x4 | x4 | x4 | D4- | D2 :| x2 | x4 | x2 A2 | x4 | x4 | x4 | x2 (ED) | %16
 x4 | x4 | x4 | x4 | x2 (ED) | x4 | x4 | x4 | D4- | D2 |] %26
V:3
|: [D,A,]2 | [F,A,]2 [D,D]2 | [G,D]2 [E,A,]2 | [D,A,]2 [E,^G,]2 | [A,,A,]2 [A,,A,]2 | %5
 [D,A,]2 ([F,A,][G,B,]) | A,2 [A,,G,]2 | [D,F,]4- | [D,F,]2 :| [D,A,]2 | A,2 [E,B,]2 | [A,C]2 A,2 | %12
 [F,A,]2 [A,C]2 | D2 [D,A,]2 | A,2 A,2 | [E,A,]2 [E,^G,]2 | A,4- | A,2 [D,A,]2 | [F,A,]2 [D,D]2 | %19
 [G,D]2 [E,A,]2 | [D,A,]2 [E,^G,]2 | [A,,A,]2 [A,,A,]2 | [D,A,]2 ([F,A,][G,B,]) | A,2 [A,,G,]2 | %24
 [D,F,]4- | [D,F,]2 |] %26
V:4
|: x2 | x4 | x4 | x4 | x4 | x4 | A,2 x2 | x4 | x2 :| x2 | A,2 x2 | x2 (A,G,) | x4 | D2 x2 | %14
 A,2 (C,D,) | x4 | A,4- | A,2 x2 | x4 | x4 | x4 | x4 | x4 | A,2 x2 | x4 | x2 |] %26

